public/malware-detection.svg

<svg width="58" height="107" viewBox="0 0 58 107" fill="none" xmlns="http://www.w3.org/2000/svg">
<g clip-path="url(#clip0_9_86748)">
<path d="M11.959 103.913C11.959 106.083 13.4713 106.961 15.3374 105.877L53.9745 83.3834C54.9572 82.7382 55.775 81.8681 56.3612 80.8439C56.9474 79.8197 57.2854 78.6704 57.3478 77.4896L57.3529 13.5268C57.3529 11.3621 55.8381 10.4814 53.9745 11.5659L15.3374 34.0645C14.3541 34.7074 13.5357 35.576 12.9493 36.5993C12.363 37.6225 12.0254 38.7713 11.9641 39.9515L11.959 103.913Z" fill="white"/>
<path d="M13.8261 107.001C14.4755 106.981 15.1084 106.79 15.6616 106.446L54.2987 83.9524C55.3824 83.2517 56.2838 82.2993 56.9274 81.1751C57.571 80.0509 57.9381 78.7876 57.9979 77.4909L58.003 13.529C58.085 12.9881 58.0031 12.4347 57.768 11.9416C57.5328 11.4484 57.1555 11.0384 56.6853 10.7651C56.2151 10.4919 55.674 10.3683 55.1329 10.4104C54.5918 10.4526 54.0761 10.6585 53.6531 11.0013L15.016 33.4999C13.9314 34.1982 13.0291 35.1491 12.3854 36.2726C11.7416 37.3961 11.3751 38.6592 11.3168 39.9554L11.3126 103.916C11.265 104.454 11.3619 104.995 11.5928 105.482C11.8238 105.969 12.1804 106.385 12.6252 106.685C12.9908 106.895 13.4052 107.004 13.8261 107.001ZM55.48 11.759C55.6735 11.7546 55.8648 11.8017 56.0344 11.8957C56.275 12.0878 56.4625 12.3389 56.5792 12.625C56.6958 12.9112 56.7376 13.2227 56.7006 13.5298L56.6955 77.4918C56.6302 78.5568 56.321 79.592 55.7921 80.5161C55.2631 81.4403 54.5289 82.2282 53.6471 82.818L15.01 105.311C14.7876 105.539 14.4965 105.687 14.1823 105.73C13.8681 105.773 13.5485 105.71 13.2737 105.55C12.9988 105.391 12.7842 105.144 12.6635 104.848C12.5427 104.553 12.5227 104.225 12.6065 103.916L12.6116 39.9536C12.6754 38.8895 12.9839 37.8548 13.5126 36.9316C14.0414 36.0084 14.776 35.2219 15.6582 34.6343L54.2953 12.1348C54.6516 11.909 55.0597 11.7795 55.48 11.759Z" fill="#005BEA"/>
<path d="M16.9052 82.368C16.9052 82.884 17.2703 83.0999 17.7181 82.8359L48.3317 65.0133C48.5685 64.8586 48.7656 64.6498 48.9072 64.4038C49.0487 64.1578 49.1306 63.8816 49.1462 63.5977C49.1462 63.0816 48.7812 62.8709 48.3317 63.1324L17.7171 80.955C17.4819 81.1104 17.2859 81.3191 17.1448 81.5644C17.0037 81.8097 16.9213 82.0849 16.9043 82.368H16.9052ZM22.5345 86.6269C22.5345 87.1489 22.8952 87.3588 23.3439 87.1L48.3317 72.5506C48.5687 72.3967 48.7658 72.188 48.9066 71.9418C49.0473 71.6955 49.1278 71.4189 49.1411 71.135C49.1411 70.619 48.7812 70.4083 48.3317 70.6646L23.3413 85.2138C23.1061 85.369 22.9106 85.5778 22.7703 85.8232C22.63 86.0687 22.5497 86.344 22.5345 86.6269ZM28.1637 79.5832C28.178 79.3005 28.2586 79.0253 28.3989 78.7801C28.5391 78.535 28.7351 78.3268 28.9706 78.1728L48.3317 66.8959C48.7838 66.6379 49.1446 66.8503 49.1446 67.3672C49.1301 67.6508 49.0487 67.9268 48.9074 68.1724C48.766 68.418 48.5687 68.6261 48.3317 68.7794L28.9706 80.0562C28.5262 80.3143 28.1611 80.1026 28.1637 79.5832ZM16.9052 69.1819C16.9052 69.6979 17.2677 69.9112 17.7146 69.6506L48.3343 51.8289C48.5693 51.6736 48.7647 51.4648 48.9049 51.2194C49.0451 50.9739 49.1259 50.6987 49.1411 50.4158C49.1411 49.8938 48.7786 49.6839 48.3283 49.9428L17.7138 67.7645C17.4786 67.9207 17.2828 68.1303 17.1423 68.3764C17.0018 68.6225 16.9202 68.8983 16.9043 69.1819H16.9052ZM22.5345 73.4408C22.5345 73.9629 22.8969 74.1727 23.3413 73.9121L48.3368 59.362C48.5721 59.2075 48.7679 58.9991 48.9081 58.7539C49.0483 58.5086 49.1291 58.2334 49.1437 57.9507C49.1437 57.4346 48.7829 57.2187 48.3309 57.4793L23.3455 72.0278C23.1096 72.1824 22.9132 72.391 22.7722 72.6365C22.6311 72.882 22.5502 73.1575 22.5345 73.4408ZM28.1637 66.3979C28.1777 66.1148 28.2582 65.8391 28.3985 65.5935C28.5387 65.3478 28.7348 65.1392 28.9706 64.9849L48.3317 53.7098C48.7812 53.4518 49.1412 53.6668 49.1446 54.1785C49.1288 54.4628 49.047 54.7394 48.9058 54.986C48.7647 55.2327 48.568 55.4424 48.3317 55.5984L28.9706 66.865C28.5237 67.129 28.1637 66.9165 28.1637 66.3979Z" fill="#1B69FF"/>
<path d="M43.3522 0.558818L49.1878 3.95596C49.3074 4.04015 49.4025 4.15501 49.4634 4.28865C49.5243 4.4223 49.5487 4.5699 49.5341 4.71623V34.5596C49.5341 48.4062 29.2603 70.9237 28.3937 71.8784C28.2581 72.0294 28.1012 72.1595 27.9281 72.2645C27.7883 72.3519 27.6297 72.4044 27.4657 72.4176C26.9045 72.452 18.1476 72.9207 12.0817 69.4462V69.4505L6.17186 66.0103C4.41706 65.096 2.95297 63.702 1.94705 61.9879C0.941132 60.2738 0.434059 58.3088 0.483807 56.3177V26.4692C0.521241 26.0611 0.649725 25.6668 0.859769 25.3158C1.06981 24.9649 1.35597 24.6665 1.69665 24.443C9.79083 19.7342 17.3357 13.0655 21.3939 7.03748C21.8041 6.42857 22.3764 6.09919 22.7901 6.22734C26.8414 7.52771 34.3837 5.41458 42.5419 0.663724C42.6533 0.569063 42.7895 0.508882 42.934 0.49042C43.0785 0.471957 43.2252 0.495998 43.3565 0.559657L43.3522 0.558818Z" fill="white"/>
<path d="M1.69208 24.4431C9.78626 19.7344 17.3312 13.0656 21.3893 7.03763C21.7996 6.42872 22.372 6.09934 22.7856 6.22749C26.837 7.52787 34.3793 5.41473 42.5374 0.663875C42.6488 0.569117 42.7849 0.508879 42.9294 0.490414C43.074 0.471948 43.2207 0.496042 43.3519 0.559809L49.1868 3.95697C49.056 3.89551 48.9106 3.87305 48.7676 3.89225C48.6246 3.91145 48.4901 3.97152 48.3799 4.06534C40.2175 8.8162 32.6802 10.9293 28.6255 9.62806C28.2127 9.49734 27.6387 9.83189 27.2301 10.4391C23.1736 16.4662 15.6305 23.135 7.53287 27.8454C7.19151 28.0681 6.90503 28.3663 6.69516 28.7174C6.48529 29.0686 6.35752 29.4633 6.3217 29.8717V59.7193C6.27275 61.7255 6.78839 63.7047 7.80878 65.4276C8.82917 67.1506 10.3126 68.5469 12.0874 69.4549H12.0798L6.17073 66.0148C4.41577 65.1005 2.95158 63.7066 1.9455 61.9925C0.939428 60.2784 0.432174 58.3134 0.481843 56.3222V26.4693C0.519047 26.0614 0.647178 25.6673 0.856764 25.3164C1.06635 24.9656 1.35192 24.667 1.69208 24.4431Z" fill="#1B69FF"/>
<path d="M25.9518 72.945C26.844 72.945 27.406 72.9132 27.4956 72.9064C27.7372 72.8892 27.9713 72.8136 28.1779 72.6862C28.3912 72.558 28.5846 72.399 28.7519 72.214C29.6236 71.2534 50.0236 48.6017 50.0219 34.5624V4.71902C50.0381 4.48711 49.9921 4.2551 49.8889 4.04722C49.7856 3.83935 49.6289 3.66325 49.4351 3.53733L43.5996 0.13933L43.5705 0.123845C43.3638 0.0229744 43.1332 -0.0175279 42.9048 0.00694384C42.6764 0.0314156 42.4594 0.119893 42.2783 0.26232C34.2908 4.91255 26.8687 7.02652 22.9394 5.76656C22.5528 5.70868 22.1579 5.77394 21.8099 5.95325C21.4619 6.13257 21.1781 6.41698 20.9981 6.76678C16.9766 12.7398 9.48884 19.3517 1.45778 24.0243C1.04453 24.2905 0.698369 24.65 0.44671 25.0744C0.195051 25.4987 0.0448372 25.9764 0.00786213 26.4694V56.3222C-0.0473455 58.3931 0.476251 60.4379 1.51889 62.2229C2.56154 64.0079 4.08114 65.4611 5.90404 66.4165L5.93725 66.438L11.8463 69.8782C11.8696 69.8914 11.8938 69.9029 11.9188 69.9126C16.6661 72.6062 23.0468 72.945 25.9518 72.945ZM43.1363 0.995065L48.9473 4.37845C49.0001 4.40941 49.0539 4.52638 49.053 4.71645V34.565C49.053 48.2301 28.8978 70.6109 28.0372 71.5561C27.9345 71.6706 27.8159 71.7694 27.6849 71.8494C27.6092 71.8969 27.5238 71.9263 27.4351 71.9353C27.0641 71.9586 18.291 72.4514 12.3172 69.0276C12.2963 69.0157 12.2746 69.0053 12.2523 68.9966L6.44055 65.6124C6.42861 65.6046 6.41834 65.5969 6.4064 65.59C4.72583 64.7174 3.32337 63.3847 2.35994 61.7448C1.39651 60.1048 0.911175 58.2242 0.959688 56.3188V26.4703C0.997098 26.1475 1.10351 25.8367 1.27151 25.5593C1.43952 25.282 1.66512 25.0447 1.93286 24.8637C10.0799 20.1232 17.6879 13.3977 21.7853 7.31205C22.1035 6.83989 22.4924 6.64723 22.6383 6.69196C26.8175 8.03276 34.5322 5.88439 42.7748 1.08538C42.9453 0.970133 43.0622 0.953772 43.1023 0.978713C43.1138 0.983321 43.1257 0.988794 43.1363 0.995065Z" fill="#005BEA"/>
<path d="M27.9297 45.9867L40.5837 22.7742L38.8105 21.7422L27.9281 41.8671L20.9401 37.8069L19.166 40.8978L27.9297 45.9867Z" fill="#1B69FF"/>
</g>
<defs>
<clipPath id="clip0_9_86748">
<rect width="58" height="107" fill="white"/>
</clipPath>
</defs>
</svg>

<svg xmlns="http://www.w3.org/2000/svg" width="58" height="107" fill="none" viewBox="0 0 58 107"><g clip-path="url(#a)"><path fill="#fff" d="M11.959 103.913c0 2.17 1.512 3.048 3.378 1.964l38.637-22.494a7.5 7.5 0 0 0 2.387-2.54 7.56 7.56 0 0 0 .987-3.353l.005-63.963c0-2.165-1.515-3.046-3.379-1.961L15.337 34.065a7.46 7.46 0 0 0-2.388 2.534 7.5 7.5 0 0 0-.985 3.353z"/><path fill="#005bea" d="M13.826 107.001a3.7 3.7 0 0 0 1.836-.555l38.637-22.494a8.1 8.1 0 0 0 2.628-2.777 8.2 8.2 0 0 0 1.07-3.684l.006-63.962c.082-.54 0-1.094-.235-1.587a2.7 2.7 0 0 0-1.083-1.177 2.68 2.68 0 0 0-3.032.236L15.016 33.5a8.07 8.07 0 0 0-2.63 2.773 8.14 8.14 0 0 0-1.07 3.682l-.003 63.961c-.048.538.049 1.079.28 1.566.23.487.587.903 1.032 1.203.366.21.78.319 1.201.316M55.48 11.759c.194-.004.385.043.554.137a1.8 1.8 0 0 1 .667 1.634l-.005 63.962a6.95 6.95 0 0 1-.904 3.024 6.9 6.9 0 0 1-2.145 2.302L15.01 105.311a1.422 1.422 0 0 1-1.736.239 1.456 1.456 0 0 1-.667-1.634l.005-63.962a6.9 6.9 0 0 1 .9-3.022 6.85 6.85 0 0 1 2.146-2.298l38.637-22.5a2.44 2.44 0 0 1 1.185-.375"/><path fill="#1b69ff" d="M16.905 82.368c0 .516.365.732.813.468l30.614-17.823a1.8 1.8 0 0 0 .814-1.415c0-.516-.365-.727-.814-.466L17.717 80.955a1.82 1.82 0 0 0-.813 1.413zm5.63 4.259c0 .522.36.732.809.473l24.988-14.55a1.78 1.78 0 0 0 .81-1.415c0-.516-.36-.727-.81-.47l-24.99 14.549a1.8 1.8 0 0 0-.807 1.413m5.629-7.044a1.8 1.8 0 0 1 .807-1.41l19.36-11.277c.453-.258.814-.046.814.471a1.8 1.8 0 0 1-.813 1.412L28.97 80.056c-.445.258-.81.047-.807-.473M16.905 69.182c0 .516.363.73.81.469l30.62-17.822a1.8 1.8 0 0 0 .806-1.413c0-.522-.362-.732-.813-.473L17.714 67.765a1.81 1.81 0 0 0-.81 1.417zm5.63 4.259c0 .522.362.732.806.471l24.996-14.55a1.79 1.79 0 0 0 .807-1.411c0-.516-.361-.732-.813-.472L23.346 72.028a1.8 1.8 0 0 0-.811 1.413m5.629-7.043a1.8 1.8 0 0 1 .807-1.413L48.33 53.71c.45-.258.81-.043.814.468a1.83 1.83 0 0 1-.813 1.42L28.97 66.865c-.447.264-.807.052-.807-.467"/><path fill="#fff" d="m43.352.559 5.836 3.397a.83.83 0 0 1 .346.76V34.56c0 13.846-20.274 36.364-21.14 37.318a2 2 0 0 1-.466.386c-.14.088-.298.14-.462.154-.562.034-9.318.503-15.384-2.972v.005l-5.91-3.44a10.56 10.56 0 0 1-4.225-4.023 10.7 10.7 0 0 1-1.463-5.67V26.469c.037-.408.166-.802.376-1.153s.496-.65.837-.873C9.79 19.734 17.336 13.065 21.394 7.037c.41-.608.982-.938 1.396-.81 4.051 1.3 11.594-.812 19.752-5.563a.75.75 0 0 1 .814-.104z"/><path fill="#1b69ff" d="M1.692 24.443c8.094-4.709 15.64-11.377 19.697-17.405.41-.61.983-.939 1.397-.81 4.051 1.3 11.593-.813 19.751-5.564a.75.75 0 0 1 .815-.104l5.835 3.397a.75.75 0 0 0-.807.108c-8.163 4.751-15.7 6.864-19.755 5.563-.412-.13-.986.204-1.395.811-4.056 6.027-11.6 12.696-19.697 17.406-.341.223-.628.521-.838.872-.21.352-.337.746-.373 1.155v29.847a10.7 10.7 0 0 0 1.487 5.709 10.57 10.57 0 0 0 4.278 4.027h-.007l-5.91-3.44a10.56 10.56 0 0 1-4.224-4.023 10.7 10.7 0 0 1-1.464-5.67V26.47a2.73 2.73 0 0 1 1.21-2.026"/><path fill="#005bea" d="M25.952 72.945c.892 0 1.454-.032 1.544-.039.241-.017.475-.092.682-.22q.322-.193.574-.472c.872-.96 21.272-23.612 21.27-37.652V4.72a1.3 1.3 0 0 0-.587-1.182L43.6.14l-.03-.015a1.22 1.22 0 0 0-1.292.138c-7.987 4.65-15.41 6.765-19.339 5.505a1.86 1.86 0 0 0-1.13.186c-.347.18-.63.464-.81.814-4.022 5.973-11.51 12.585-19.541 17.257-.413.267-.76.626-1.011 1.05a3.2 3.2 0 0 0-.44 1.395v29.853a11.1 11.1 0 0 0 1.512 5.9 11 11 0 0 0 4.385 4.194l.033.022 5.91 3.44a1 1 0 0 0 .072.035c4.747 2.693 11.128 3.032 14.033 3.032M43.136.995l5.811 3.383c.053.031.107.148.106.338v29.849c0 13.665-20.155 36.046-21.016 36.991a1.6 1.6 0 0 1-.352.293.6.6 0 0 1-.25.086c-.37.024-9.144.516-15.118-2.907a1 1 0 0 0-.065-.031l-5.811-3.385-.035-.022a10.1 10.1 0 0 1-4.046-3.845 10.2 10.2 0 0 1-1.4-5.426V26.47a2.26 2.26 0 0 1 .973-1.606c8.147-4.74 15.755-11.466 19.852-17.552.319-.472.707-.665.853-.62 4.18 1.34 11.894-.808 20.137-5.607.17-.115.287-.131.327-.106q.018.007.034.016"/><path fill="#1b69ff" d="m27.93 45.987 12.654-23.213-1.774-1.032-10.882 20.125-6.988-4.06-1.774 3.09z"/></g><defs><clipPath id="a"><path fill="#fff" d="M0 0h58v107H0z"/></clipPath></defs></svg>
